X:1
T:Dignare me laudare
T:Maître Gosse
T:Source : Liber motettorum VII---Paris---P.Attaignant---1534. Editor : André Vierendeels ( 26/08/17).
T:Notes : Original clefs : G2, C1, C3 Original note values have been halved Editorial accidentals above the staff
T:Dignare me laudare te
T:©
T:©
T:©
T:©
C:Maître Gosse
Z:©
%%score [ 1 2 3 ]
L:1/8
Q:1/4=120
M:2/2
K:F
V:1 treble nm="Soprano 1" snm="S 1"
V:2 treble nm="Soprano 2" snm="S 2"
V:3 treble-8 nm="Tenor" snm="T"
V:1
 c8 | A4 B4 | c6 d2- | dcBA G4 | F2 c3 Bcd | e2 f4 e2 | c2 e2 d4 | z2 c4 A2 | B2 d3 cBA | BAGF G4 | %10
w: Di-|gna- *||||re me, lau-|da- re te,|di- gna-|||
 F2 A3 GFE | F4 G4 | A4 z2 c2 | d2 c2 A4- | A4 z4 | z2 c2 d2 c2 | A2 B2 c2 A2 | G2 A4 G2 | %18
w: |re me,|_ lau-|da- rte te,|_|vir- go sa-|cra- * * *||
 A2 c3 BAG | A3 B cdec | de f4 e2 | f8!fine! || z4 d4- | d4 d4 | d4 c3 B | AG A2 F2 f2- | %26
w: |||ta,|da|_ mi-|chi vir- *|* * * * tu-|
 f2 ed e4- | e4 z4 | z8 | z8 | z8 | z4 G4 | E2 F2 G2 A2 | F3 G AF G2- | GABc defd | e3 d c2 d2- | %36
w: * * * tem|_||||con-|tra ho- stes _|tu- * * * *||* * os, tu-|
 d2 c4 B2 | c8- | c8 |] %39
w: |os.|_|
V:2
 z8 | z8 | F8 | D4 E4 | F3 G AB A2- | A2 GF G2 A2- | AB c2 F2 B2 | G4 A4 | F4 z4 | z4 c4- | c4 A4 | %11
w: ||Di-|gna- *|* * * * re|_ _ _ me, lau-|* * * da- *|re _|te,|di-|* gna-|
 B4 c4- | c2 A2 B2 A2 | F2 G2 F2 c2- | cBAG A4 | G2 F4 E2 | F4 z2 c2 | d2 c2 A2 B2 | c2 A2 G2 c2- | %19
w: re me,|_ lau- da- *|||* * re|te, vir-|go sa- cra- *||
 cBAG ABcA | BAGF G4 | F8 || z4 F4- | F4 F4 | F4 E4 | F3 G AB A2- | A2 GF G4 | z2 G4 E2 | %28
w: ||ta,|da|_ mi-|chi vir-|tu- * * * *|* * * tem|con- tra|
 F2 G2 A2 F2- | FGAF G3 A | Bc d4 c2- | c2 B2 c3 d | e2 d4 c2- | c2 B2 c2 CD | EFGA BG A2 | %35
w: ho- stes tu- *|||||||
 G2 A4 GF | A2 G4 F2- | F2 ED E4 | F8 |] %39
w: |os, tu- *||os.|
V:3
 z8 | z8 | z8 | z8 | z8 | c8 | A4 B4 | c6 d2- | dcBA GABc | de f4 e2 | f3 e fedc | d4 c3 B | %12
w: |||||Di-|gna- *|||re _ me, lau-|da- * * * * *||
 A2 GF G2 F2 | z2 c2 d2 c2 | A2 f3 edc | B2 A2 B2 c2 | d4 c4 | z2 c2 d2 B2 | A3 B c2 c2 | %19
w: * * * re te,|lau- da- *||* * * re|te, _|lau- da- *|* * re te,|
 F2 f4 e2 | d4 c4 | F8 || z4 B4- | B4 B4 | B4 c4 | d8 | c8 | z4 c4 | A2 B2 c2 d2 | B2 c3 def | %30
w: vir- go sa-|cra- *|ta,|da|_ mi-|chi vir-|tu-|tem|con-|tra ho- stes tu-||
 g4 fedc | d4 c4- | c2 d2 e2 f2 | d4 c4 | z8 | c4 A2 B2 | c4 d4 | c8 | F8 |] %39
w: |||* os,||con- tra ho-|stes tu-||os.|

